X: 100452
T: ARTHUR'S SEAT WALTZ #1
C: Louis J. Collins, Edinburgh
R: waltz
B: K\"ohler's Violin Repository, v.3, 1885 p.285 #1
F: http://www.archive.org/details/klersviolinrepos03rugg
Z: 2012 John Chambers <jc:trillian.mit.edu>
M: 3/4
L: 1/8
P: 2nd time, 8va.
K: G
|:\
B6 | (F4G2) | c6 | B6 | (E6 | F4D2) | G6- | G6 |\
G6 | (F4E2) | D6 (B,4D2) | (G6 | A4^A2) | B6- | B6 | B6 | (F4G2) |
c6 | B6 | (E6 | F4D2) | G6- | G6 | (d4^c2) | (=c4A2) |\
c6 | B6 | (A4^A2 | B4D2) | G6- | G4 :||: uD2 | BBbbbb |
BBbbbb | BBbbbb | b4a2 | AAaaaa | AAaaaa | AAaaaa | a4g2 | ddd'd'd'd' |
ddd'd'd'd' | ddd'd'd'd' | d'4c'2 | (c'f)fffc' | (be)eeeb | (ad)ddda |[1 g2z2 :|[2 g2d2c2 "_D.C."|]

%%sep 2 1 500

